images/3234255.svg

<?xml version="1.0" encoding="UTF-8"?>
<svg xmlns="http://www.w3.org/2000/svg" xmlns:xlink="http://www.w3.org/1999/xlink" width="300pt" height="300pt" viewBox="0 0 300 300" version="1.1">
<defs>
<g>
<symbol overflow="visible" id="glyph0-0">
<path style="stroke:none;" d="M 0.453125 1.59375 L 0.453125 -6.34375 L 4.953125 -6.34375 L 4.953125 1.59375 Z M 0.953125 1.09375 L 4.453125 1.09375 L 4.453125 -5.84375 L 0.953125 -5.84375 Z M 0.953125 1.09375 "/>
</symbol>
<symbol overflow="visible" id="glyph0-1">
<path style="stroke:none;" d="M 3.546875 -5.953125 C 2.898438 -5.953125 2.382812 -5.710938 2 -5.234375 C 1.625 -4.753906 1.4375 -4.101562 1.4375 -3.28125 C 1.4375 -2.445312 1.625 -1.789062 2 -1.3125 C 2.382812 -0.832031 2.898438 -0.59375 3.546875 -0.59375 C 4.191406 -0.59375 4.703125 -0.832031 5.078125 -1.3125 C 5.453125 -1.789062 5.640625 -2.445312 5.640625 -3.28125 C 5.640625 -4.101562 5.453125 -4.753906 5.078125 -5.234375 C 4.703125 -5.710938 4.191406 -5.953125 3.546875 -5.953125 Z M 3.546875 -6.6875 C 4.460938 -6.6875 5.195312 -6.375 5.75 -5.75 C 6.300781 -5.132812 6.578125 -4.3125 6.578125 -3.28125 C 6.578125 -2.238281 6.300781 -1.410156 5.75 -0.796875 C 5.195312 -0.179688 4.460938 0.125 3.546875 0.125 C 2.617188 0.125 1.878906 -0.179688 1.328125 -0.796875 C 0.773438 -1.410156 0.5 -2.238281 0.5 -3.28125 C 0.5 -4.3125 0.773438 -5.132812 1.328125 -5.75 C 1.878906 -6.375 2.617188 -6.6875 3.546875 -6.6875 Z M 3.546875 -6.6875 "/>
</symbol>
<symbol overflow="visible" id="glyph0-2">
<path style="stroke:none;" d="M 0.890625 -6.5625 L 2.078125 -6.5625 L 4.984375 -1.078125 L 4.984375 -6.5625 L 5.84375 -6.5625 L 5.84375 0 L 4.65625 0 L 1.75 -5.484375 L 1.75 0 L 0.890625 0 Z M 0.890625 -6.5625 "/>
</symbol>
<symbol overflow="visible" id="glyph0-3">
<path style="stroke:none;" d="M 0.890625 -6.5625 L 1.765625 -6.5625 L 1.765625 -3.875 L 5 -3.875 L 5 -6.5625 L 5.890625 -6.5625 L 5.890625 0 L 5 0 L 5 -3.125 L 1.765625 -3.125 L 1.765625 0 L 0.890625 0 Z M 0.890625 -6.5625 "/>
</symbol>
</g>
</defs>
<g id="surface36313">
<rect x="0" y="0" width="300" height="300" style="fill:rgb(100%,100%,100%);fill-opacity:1;stroke:none;"/>
<path style="fill:none;stroke-width:1.2;stroke-linecap:butt;stroke-linejoin:miter;stroke:rgb(0%,0%,0%);stroke-opacity:1;stroke-miterlimit:10;" d="M 39.304688 109.632812 L 37.277344 117.96875 "/>
<path style="fill:none;stroke-width:1.2;stroke-linecap:butt;stroke-linejoin:miter;stroke:rgb(100%,0%,0%);stroke-opacity:1;stroke-miterlimit:10;" d="M 37.277344 117.96875 L 35.25 126.304688 "/>
<path style="fill:none;stroke-width:1.2;stroke-linecap:butt;stroke-linejoin:miter;stroke:rgb(100%,0%,0%);stroke-opacity:1;stroke-miterlimit:10;" d="M 35.25 126.304688 L 41.457031 132.230469 "/>
<path style="fill:none;stroke-width:1.2;stroke-linecap:butt;stroke-linejoin:miter;stroke:rgb(0%,0%,0%);stroke-opacity:1;stroke-miterlimit:10;" d="M 41.457031 132.230469 L 47.664062 138.152344 "/>
<path style=" stroke:none;fill-rule:nonzero;fill:rgb(100%,100%,100%);fill-opacity:1;" d="M 31.25 120.804688 L 39.25 120.804688 L 39.25 131.804688 L 31.25 131.804688 Z M 31.25 120.804688 "/>
<g style="fill:rgb(100%,0%,0%);fill-opacity:1;">
  <use xlink:href="#glyph0-1" x="31.25" y="129.467773"/>
</g>
<path style="fill:none;stroke-width:1.2;stroke-linecap:butt;stroke-linejoin:miter;stroke:rgb(0%,0%,0%);stroke-opacity:1;stroke-miterlimit:10;" d="M 47.664062 138.152344 L 64.128906 133.328125 "/>
<path style="fill:none;stroke-width:1.2;stroke-linecap:butt;stroke-linejoin:miter;stroke:rgb(0%,0%,0%);stroke-opacity:1;stroke-miterlimit:10;" d="M 50.445312 141.542969 L 63.617188 137.683594 "/>
<path style="fill:none;stroke-width:1.2;stroke-linecap:butt;stroke-linejoin:miter;stroke:rgb(0%,0%,0%);stroke-opacity:1;stroke-miterlimit:10;" d="M 43.609375 154.828125 L 47.664062 138.152344 "/>
<path style="fill:none;stroke-width:1.2;stroke-linecap:butt;stroke-linejoin:miter;stroke:rgb(0%,0%,0%);stroke-opacity:1;stroke-miterlimit:10;" d="M 64.128906 133.328125 L 76.542969 145.171875 "/>
<path style="fill:none;stroke-width:1.2;stroke-linecap:butt;stroke-linejoin:miter;stroke:rgb(0%,0%,0%);stroke-opacity:1;stroke-miterlimit:10;" d="M 76.542969 145.171875 L 72.488281 161.847656 "/>
<path style="fill:none;stroke-width:1.2;stroke-linecap:butt;stroke-linejoin:miter;stroke:rgb(0%,0%,0%);stroke-opacity:1;stroke-miterlimit:10;" d="M 72.214844 145.886719 L 68.972656 159.226562 "/>
<path style="fill:none;stroke-width:1.2;stroke-linecap:butt;stroke-linejoin:miter;stroke:rgb(0%,0%,0%);stroke-opacity:1;stroke-miterlimit:10;" d="M 72.488281 161.847656 L 56.023438 166.671875 "/>
<path style="fill:none;stroke-width:1.2;stroke-linecap:butt;stroke-linejoin:miter;stroke:rgb(0%,0%,0%);stroke-opacity:1;stroke-miterlimit:10;" d="M 72.488281 161.847656 L 84.902344 173.695312 "/>
<path style="fill:none;stroke-width:1.2;stroke-linecap:butt;stroke-linejoin:miter;stroke:rgb(0%,0%,0%);stroke-opacity:1;stroke-miterlimit:10;" d="M 56.023438 166.671875 L 43.609375 154.828125 "/>
<path style="fill:none;stroke-width:1.2;stroke-linecap:butt;stroke-linejoin:miter;stroke:rgb(0%,0%,0%);stroke-opacity:1;stroke-miterlimit:10;" d="M 57.570312 162.566406 L 47.636719 153.089844 "/>
<path style="fill:none;stroke-width:1.2;stroke-linecap:butt;stroke-linejoin:miter;stroke:rgb(0%,0%,0%);stroke-opacity:1;stroke-miterlimit:10;" d="M 82.941406 173.21875 L 80.914062 181.554688 "/>
<path style="fill:none;stroke-width:1.2;stroke-linecap:butt;stroke-linejoin:miter;stroke:rgb(100%,0%,0%);stroke-opacity:1;stroke-miterlimit:10;" d="M 80.914062 181.554688 L 78.886719 189.890625 "/>
<path style="fill:none;stroke-width:1.2;stroke-linecap:butt;stroke-linejoin:miter;stroke:rgb(0%,0%,0%);stroke-opacity:1;stroke-miterlimit:10;" d="M 86.863281 174.171875 L 84.835938 182.507812 "/>
<path style="fill:none;stroke-width:1.2;stroke-linecap:butt;stroke-linejoin:miter;stroke:rgb(100%,0%,0%);stroke-opacity:1;stroke-miterlimit:10;" d="M 84.835938 182.507812 L 82.8125 190.84375 "/>
<path style="fill:none;stroke-width:1.2;stroke-linecap:butt;stroke-linejoin:miter;stroke:rgb(0%,0%,0%);stroke-opacity:1;stroke-miterlimit:10;" d="M 84.902344 173.695312 L 93.136719 171.28125 "/>
<path style="fill:none;stroke-width:1.2;stroke-linecap:butt;stroke-linejoin:miter;stroke:rgb(0%,0%,100%);stroke-opacity:1;stroke-miterlimit:10;" d="M 93.136719 171.28125 L 101.371094 168.867188 "/>
<path style=" stroke:none;fill-rule:nonzero;fill:rgb(100%,100%,100%);fill-opacity:1;" d="M 76.847656 184.867188 L 84.847656 184.867188 L 84.847656 195.867188 L 76.847656 195.867188 Z M 76.847656 184.867188 "/>
<g style="fill:rgb(100%,0%,0%);fill-opacity:1;">
  <use xlink:href="#glyph0-1" x="76.847656" y="193.530273"/>
</g>
<path style="fill:none;stroke-width:1.2;stroke-linecap:butt;stroke-linejoin:miter;stroke:rgb(0%,0%,100%);stroke-opacity:1;stroke-miterlimit:10;" d="M 101.371094 168.867188 L 107.574219 174.792969 "/>
<path style="fill:none;stroke-width:1.2;stroke-linecap:butt;stroke-linejoin:miter;stroke:rgb(0%,0%,0%);stroke-opacity:1;stroke-miterlimit:10;" d="M 107.574219 174.792969 L 113.78125 180.714844 "/>
<path style="fill:none;stroke-width:1.2;stroke-linecap:butt;stroke-linejoin:miter;stroke:rgb(0%,0%,0%);stroke-opacity:1;stroke-miterlimit:10;" d="M 105.421875 152.195312 L 103.394531 160.53125 "/>
<path style="fill:none;stroke-width:1.2;stroke-linecap:butt;stroke-linejoin:miter;stroke:rgb(0%,0%,100%);stroke-opacity:1;stroke-miterlimit:10;" d="M 103.394531 160.53125 L 101.371094 168.867188 "/>
<path style=" stroke:none;fill-rule:nonzero;fill:rgb(100%,100%,100%);fill-opacity:1;" d="M 98.371094 163.367188 L 105.371094 163.367188 L 105.371094 174.367188 L 98.371094 174.367188 Z M 98.371094 163.367188 "/>
<g style="fill:rgb(0%,0%,100%);fill-opacity:1;">
  <use xlink:href="#glyph0-2" x="98.371094" y="172.030273"/>
</g>
<path style="fill:none;stroke-width:1.2;stroke-linecap:butt;stroke-linejoin:miter;stroke:rgb(0%,0%,0%);stroke-opacity:1;stroke-miterlimit:10;" d="M 113.78125 180.714844 L 130.25 175.890625 "/>
<path style="fill:none;stroke-width:1.2;stroke-linecap:butt;stroke-linejoin:miter;stroke:rgb(0%,0%,0%);stroke-opacity:1;stroke-miterlimit:10;" d="M 130.25 175.890625 L 134.304688 159.214844 "/>
<path style="fill:none;stroke-width:1.2;stroke-linecap:butt;stroke-linejoin:miter;stroke:rgb(0%,0%,0%);stroke-opacity:1;stroke-miterlimit:10;" d="M 134.304688 159.214844 L 121.890625 147.367188 "/>
<path style="fill:none;stroke-width:1.2;stroke-linecap:butt;stroke-linejoin:miter;stroke:rgb(0%,0%,0%);stroke-opacity:1;stroke-miterlimit:10;" d="M 134.304688 159.214844 L 149.359375 167.445312 "/>
<path style="fill:none;stroke-width:1.2;stroke-linecap:butt;stroke-linejoin:miter;stroke:rgb(0%,0%,0%);stroke-opacity:1;stroke-miterlimit:10;" d="M 142.535156 144.160156 L 134.304688 159.214844 "/>
<path style="fill:none;stroke-width:1.2;stroke-linecap:butt;stroke-linejoin:miter;stroke:rgb(0%,0%,0%);stroke-opacity:1;stroke-miterlimit:10;" d="M 121.890625 147.367188 L 105.421875 152.195312 "/>
<path style="fill:none;stroke-width:1.2;stroke-linecap:butt;stroke-linejoin:miter;stroke:rgb(0%,0%,0%);stroke-opacity:1;stroke-miterlimit:10;" d="M 149.359375 167.445312 L 153.476562 159.917969 "/>
<path style="fill:none;stroke-width:1.2;stroke-linecap:butt;stroke-linejoin:miter;stroke:rgb(0%,0%,100%);stroke-opacity:1;stroke-miterlimit:10;" d="M 153.476562 159.917969 L 157.589844 152.390625 "/>
<path style="fill:none;stroke-width:1.2;stroke-linecap:butt;stroke-linejoin:miter;stroke:rgb(0%,0%,100%);stroke-opacity:1;stroke-miterlimit:10;" d="M 157.589844 152.390625 L 150.0625 148.273438 "/>
<path style="fill:none;stroke-width:1.2;stroke-linecap:butt;stroke-linejoin:miter;stroke:rgb(0%,0%,0%);stroke-opacity:1;stroke-miterlimit:10;" d="M 150.0625 148.273438 L 142.535156 144.160156 "/>
<path style="fill:none;stroke-width:1.2;stroke-linecap:butt;stroke-linejoin:miter;stroke:rgb(0%,0%,100%);stroke-opacity:1;stroke-miterlimit:10;" d="M 157.589844 152.390625 L 165.824219 149.976562 "/>
<path style="fill:none;stroke-width:1.2;stroke-linecap:butt;stroke-linejoin:miter;stroke:rgb(0%,0%,0%);stroke-opacity:1;stroke-miterlimit:10;" d="M 165.824219 149.976562 L 174.058594 147.5625 "/>
<path style=" stroke:none;fill-rule:nonzero;fill:rgb(100%,100%,100%);fill-opacity:1;" d="M 154.589844 146.890625 L 161.589844 146.890625 L 161.589844 157.890625 L 154.589844 157.890625 Z M 154.589844 146.890625 "/>
<g style="fill:rgb(0%,0%,100%);fill-opacity:1;">
  <use xlink:href="#glyph0-2" x="154.589844" y="155.553711"/>
</g>
<path style="fill:none;stroke-width:1.2;stroke-linecap:butt;stroke-linejoin:miter;stroke:rgb(0%,0%,0%);stroke-opacity:1;stroke-miterlimit:10;" d="M 176.019531 148.039062 L 178.046875 139.703125 "/>
<path style="fill:none;stroke-width:1.2;stroke-linecap:butt;stroke-linejoin:miter;stroke:rgb(100%,0%,0%);stroke-opacity:1;stroke-miterlimit:10;" d="M 178.046875 139.703125 L 180.070312 131.367188 "/>
<path style="fill:none;stroke-width:1.2;stroke-linecap:butt;stroke-linejoin:miter;stroke:rgb(0%,0%,0%);stroke-opacity:1;stroke-miterlimit:10;" d="M 172.09375 147.085938 L 174.121094 138.75 "/>
<path style="fill:none;stroke-width:1.2;stroke-linecap:butt;stroke-linejoin:miter;stroke:rgb(100%,0%,0%);stroke-opacity:1;stroke-miterlimit:10;" d="M 174.121094 138.75 L 176.148438 130.414062 "/>
<path style="fill:none;stroke-width:1.2;stroke-linecap:butt;stroke-linejoin:miter;stroke:rgb(0%,0%,0%);stroke-opacity:1;stroke-miterlimit:10;" d="M 174.058594 147.5625 L 180.261719 153.488281 "/>
<path style="fill:none;stroke-width:1.2;stroke-linecap:butt;stroke-linejoin:miter;stroke:rgb(0%,0%,100%);stroke-opacity:1;stroke-miterlimit:10;" d="M 180.261719 153.488281 L 186.46875 159.410156 "/>
<path style=" stroke:none;fill-rule:nonzero;fill:rgb(100%,100%,100%);fill-opacity:1;" d="M 174.109375 125.390625 L 182.109375 125.390625 L 182.109375 136.390625 L 174.109375 136.390625 Z M 174.109375 125.390625 "/>
<g style="fill:rgb(100%,0%,0%);fill-opacity:1;">
  <use xlink:href="#glyph0-1" x="174.109375" y="134.053711"/>
</g>
<path style="fill:none;stroke-width:1.2;stroke-linecap:butt;stroke-linejoin:miter;stroke:rgb(0%,0%,100%);stroke-opacity:1;stroke-miterlimit:10;" d="M 186.46875 159.410156 L 194.703125 156.996094 "/>
<path style="fill:none;stroke-width:1.2;stroke-linecap:butt;stroke-linejoin:miter;stroke:rgb(0%,0%,0%);stroke-opacity:1;stroke-miterlimit:10;" d="M 194.703125 156.996094 L 202.9375 154.585938 "/>
<path style=" stroke:none;fill-rule:nonzero;fill:rgb(100%,100%,100%);fill-opacity:1;" d="M 179.46875 153.910156 L 193.46875 153.910156 L 193.46875 164.910156 L 179.46875 164.910156 Z M 179.46875 153.910156 "/>
<g style="fill:rgb(0%,0%,100%);fill-opacity:1;">
  <use xlink:href="#glyph0-2" x="179.46875" y="162.573242"/>
  <use xlink:href="#glyph0-3" x="186.446289" y="162.573242"/>
</g>
<path style="fill:none;stroke-width:1.2;stroke-linecap:butt;stroke-linejoin:miter;stroke:rgb(0%,0%,0%);stroke-opacity:1;stroke-miterlimit:10;" d="M 202.9375 154.585938 L 215.351562 166.433594 "/>
<path style="fill:none;stroke-width:1.2;stroke-linecap:butt;stroke-linejoin:miter;stroke:rgb(0%,0%,0%);stroke-opacity:1;stroke-miterlimit:10;" d="M 206.964844 152.847656 L 216.894531 162.328125 "/>
<path style="fill:none;stroke-width:1.2;stroke-linecap:butt;stroke-linejoin:miter;stroke:rgb(0%,0%,0%);stroke-opacity:1;stroke-miterlimit:10;" d="M 206.992188 137.910156 L 202.9375 154.585938 "/>
<path style="fill:none;stroke-width:1.2;stroke-linecap:butt;stroke-linejoin:miter;stroke:rgb(0%,0%,0%);stroke-opacity:1;stroke-miterlimit:10;" d="M 215.351562 166.433594 L 231.816406 161.605469 "/>
<path style="fill:none;stroke-width:1.2;stroke-linecap:butt;stroke-linejoin:miter;stroke:rgb(0%,0%,0%);stroke-opacity:1;stroke-miterlimit:10;" d="M 231.816406 161.605469 L 235.871094 144.929688 "/>
<path style="fill:none;stroke-width:1.2;stroke-linecap:butt;stroke-linejoin:miter;stroke:rgb(0%,0%,0%);stroke-opacity:1;stroke-miterlimit:10;" d="M 228.296875 158.984375 L 231.542969 145.644531 "/>
<path style="fill:none;stroke-width:1.2;stroke-linecap:butt;stroke-linejoin:miter;stroke:rgb(0%,0%,0%);stroke-opacity:1;stroke-miterlimit:10;" d="M 235.871094 144.929688 L 223.457031 133.085938 "/>
<path style="fill:none;stroke-width:1.2;stroke-linecap:butt;stroke-linejoin:miter;stroke:rgb(0%,0%,0%);stroke-opacity:1;stroke-miterlimit:10;" d="M 235.871094 144.929688 L 244.101562 142.519531 "/>
<path style="fill:none;stroke-width:1.2;stroke-linecap:butt;stroke-linejoin:miter;stroke:rgb(100%,0%,0%);stroke-opacity:1;stroke-miterlimit:10;" d="M 244.101562 142.519531 L 252.335938 140.105469 "/>
<path style="fill:none;stroke-width:1.2;stroke-linecap:butt;stroke-linejoin:miter;stroke:rgb(0%,0%,0%);stroke-opacity:1;stroke-miterlimit:10;" d="M 223.457031 133.085938 L 206.992188 137.910156 "/>
<path style="fill:none;stroke-width:1.2;stroke-linecap:butt;stroke-linejoin:miter;stroke:rgb(0%,0%,0%);stroke-opacity:1;stroke-miterlimit:10;" d="M 222.945312 137.441406 L 209.773438 141.300781 "/>
<path style="fill:none;stroke-width:1.2;stroke-linecap:butt;stroke-linejoin:miter;stroke:rgb(100%,0%,0%);stroke-opacity:1;stroke-miterlimit:10;" d="M 252.335938 140.105469 L 258.542969 146.027344 "/>
<path style="fill:none;stroke-width:1.2;stroke-linecap:butt;stroke-linejoin:miter;stroke:rgb(0%,0%,0%);stroke-opacity:1;stroke-miterlimit:10;" d="M 258.542969 146.027344 L 264.75 151.953125 "/>
<path style=" stroke:none;fill-rule:nonzero;fill:rgb(100%,100%,100%);fill-opacity:1;" d="M 248.335938 134.605469 L 256.335938 134.605469 L 256.335938 145.605469 L 248.335938 145.605469 Z M 248.335938 134.605469 "/>
<g style="fill:rgb(100%,0%,0%);fill-opacity:1;">
  <use xlink:href="#glyph0-1" x="248.335938" y="143.268555"/>
</g>
</g>
</svg>

<svg xmlns="http://www.w3.org/2000/svg" xmlns:xlink="http://www.w3.org/1999/xlink" width="300pt" height="300pt" viewBox="0 0 300 300"><defs><symbol overflow="visible"><path d="M.453 1.594v-7.938h4.5v7.938zm.5-.5h3.5v-6.938h-3.5zm0 0"/></symbol><symbol overflow="visible" id="a"><path d="M3.547-5.953c-.65 0-1.164.242-1.547.72-.375.48-.563 1.13-.563 1.952 0 .835.188 1.49.563 1.967.383.48.898.72 1.547.72.644 0 1.156-.24 1.53-.72.376-.476.564-1.132.564-1.968 0-.822-.187-1.474-.562-1.954-.375-.477-.887-.72-1.53-.72zm0-.734c.914 0 1.648.312 2.203.937.55.617.828 1.438.828 2.47 0 1.042-.277 1.87-.828 2.483-.555.617-1.29.922-2.203.922-.93 0-1.668-.305-2.22-.922C.774-1.41.5-2.237.5-3.28c0-1.033.273-1.853.828-2.47.55-.625 1.29-.938 2.22-.938zm0 0"/></symbol><symbol overflow="visible" id="b"><path d="M.89-6.563H2.08l2.906 5.485v-5.484h.86V0H4.656L1.75-5.484V0H.89zm0 0"/></symbol><symbol overflow="visible" id="c"><path d="M.89-6.563h.876v2.688H5v-2.688h.89V0H5v-3.125H1.766V0H.89zm0 0"/></symbol></defs><g><path fill="#fff" d="M0 0h300v300H0z"/><path d="M39.305 109.633l-2.028 8.336" stroke-width="1.2" stroke="#000" stroke-miterlimit="10" fill="none"/><path d="M37.277 117.97l-2.027 8.335M35.25 126.305l6.207 5.925" stroke-width="1.2" stroke="#f00" stroke-miterlimit="10" fill="none"/><path d="M41.457 132.23l6.207 5.922" stroke-width="1.2" stroke="#000" stroke-miterlimit="10" fill="none"/><path d="M31.25 120.805h8v11h-8zm0 0" fill="#fff"/><use xlink:href="#a" x="31.25" y="129.468" fill="#f00"/><path d="M47.664 138.152l16.465-4.824M50.445 141.543l13.172-3.86M43.61 154.828l4.054-16.676M64.13 133.328l12.413 11.844M76.543 145.172l-4.055 16.676M72.215 145.887l-3.242 13.34M72.488 161.848l-16.465 4.824M72.488 161.848l12.414 11.847M56.023 166.672L43.61 154.828M57.57 162.566l-9.933-9.476M82.94 173.22l-2.026 8.335" stroke-width="1.2" stroke="#000" stroke-miterlimit="10" fill="none"/><path d="M80.914 181.555l-2.027 8.336" stroke-width="1.2" stroke="#f00" stroke-miterlimit="10" fill="none"/><path d="M86.863 174.172l-2.027 8.336" stroke-width="1.2" stroke="#000" stroke-miterlimit="10" fill="none"/><path d="M84.836 182.508l-2.023 8.336" stroke-width="1.2" stroke="#f00" stroke-miterlimit="10" fill="none"/><path d="M84.902 173.695l8.235-2.414" stroke-width="1.2" stroke="#000" stroke-miterlimit="10" fill="none"/><path d="M93.137 171.28l8.234-2.413" stroke-width="1.2" stroke="#00f" stroke-miterlimit="10" fill="none"/><path d="M76.848 184.867h8v11h-8zm0 0" fill="#fff"/><use xlink:href="#a" x="76.848" y="193.53" fill="#f00"/><path d="M101.37 168.867l6.204 5.926" stroke-width="1.2" stroke="#00f" stroke-miterlimit="10" fill="none"/><path d="M107.574 174.793l6.207 5.922M105.422 152.195l-2.027 8.336" stroke-width="1.2" stroke="#000" stroke-miterlimit="10" fill="none"/><path d="M103.395 160.53l-2.024 8.337" stroke-width="1.2" stroke="#00f" stroke-miterlimit="10" fill="none"/><path d="M98.37 163.367h7v11h-7zm0 0" fill="#fff"/><use xlink:href="#b" x="98.371" y="172.03" fill="#00f"/><path d="M113.78 180.715l16.47-4.824M130.25 175.89l4.055-16.675M134.305 159.215l-12.414-11.848M134.305 159.215l15.054 8.23M142.535 144.16l-8.23 15.055M121.89 147.367l-16.468 4.828M149.36 167.445l4.117-7.527" stroke-width="1.2" stroke="#000" stroke-miterlimit="10" fill="none"/><path d="M153.477 159.918l4.113-7.527M157.59 152.39l-7.528-4.117" stroke-width="1.2" stroke="#00f" stroke-miterlimit="10" fill="none"/><path d="M150.063 148.273l-7.528-4.113" stroke-width="1.2" stroke="#000" stroke-miterlimit="10" fill="none"/><path d="M157.59 152.39l8.234-2.413" stroke-width="1.2" stroke="#00f" stroke-miterlimit="10" fill="none"/><path d="M165.824 149.977l8.235-2.415" stroke-width="1.2" stroke="#000" stroke-miterlimit="10" fill="none"/><path d="M154.59 146.89h7v11h-7zm0 0" fill="#fff"/><use xlink:href="#b" x="154.59" y="155.554" fill="#00f"/><path d="M176.02 148.04l2.027-8.337" stroke-width="1.2" stroke="#000" stroke-miterlimit="10" fill="none"/><path d="M178.047 139.703l2.023-8.336" stroke-width="1.2" stroke="#f00" stroke-miterlimit="10" fill="none"/><path d="M172.094 147.086l2.027-8.336" stroke-width="1.2" stroke="#000" stroke-miterlimit="10" fill="none"/><path d="M174.12 138.75l2.028-8.336" stroke-width="1.2" stroke="#f00" stroke-miterlimit="10" fill="none"/><path d="M174.06 147.563l6.202 5.925" stroke-width="1.2" stroke="#000" stroke-miterlimit="10" fill="none"/><path d="M180.262 153.488l6.207 5.922" stroke-width="1.2" stroke="#00f" stroke-miterlimit="10" fill="none"/><path d="M174.11 125.39h8v11h-8zm0 0" fill="#fff"/><use xlink:href="#a" x="174.109" y="134.054" fill="#f00"/><path d="M186.47 159.41l8.233-2.414" stroke-width="1.2" stroke="#00f" stroke-miterlimit="10" fill="none"/><path d="M194.703 156.996l8.234-2.41" stroke-width="1.2" stroke="#000" stroke-miterlimit="10" fill="none"/><path d="M179.47 153.91h14v11h-14zm0 0" fill="#fff"/><g fill="#00f"><use xlink:href="#b" x="179.469" y="162.573"/><use xlink:href="#c" x="186.446" y="162.573"/></g><path d="M202.938 154.586l12.414 11.848M206.965 152.848l9.93 9.48M206.992 137.91l-4.054 16.676M215.352 166.434l16.464-4.83M231.816 161.605l4.055-16.675M228.297 158.984l3.246-13.34M235.87 144.93l-12.413-11.844M235.87 144.93l8.232-2.41" stroke-width="1.2" stroke="#000" stroke-miterlimit="10" fill="none"/><path d="M244.102 142.52l8.234-2.415" stroke-width="1.2" stroke="#f00" stroke-miterlimit="10" fill="none"/><path d="M223.457 133.086l-16.465 4.824M222.945 137.44l-13.172 3.86" stroke-width="1.2" stroke="#000" stroke-miterlimit="10" fill="none"/><path d="M252.336 140.105l6.207 5.922" stroke-width="1.2" stroke="#f00" stroke-miterlimit="10" fill="none"/><path d="M258.543 146.027l6.207 5.926" stroke-width="1.2" stroke="#000" stroke-miterlimit="10" fill="none"/><path d="M248.336 134.605h8v11h-8zm0 0" fill="#fff"/><use xlink:href="#a" x="248.336" y="143.269" fill="#f00"/></g></svg>
